X:1395
T:Her Golden Hair Flowing Down Her Back
S:Mick O'Brien
N:  C:Junior Crehan
M:4/4
K:ADor
cd|:edce d2cA|GE E2 G2cd|edce d2cd|eaag a2g_f|
edce d2cA|GE E2 GAcd|edcA dcAG|A2AG AB cd:|
eggf gede|cAAB c3d|eaag a2g_f|edce d2cd|
eggf gede|cAAB cBcd|edcA dcAG|A2AG AB cd:|
